X:398
T:Glen-Finlas 
C:Joe Buchanan's Scottish Tome - Page 354.0
I:354 0
Z:Carl Allison
R:March
L:1/16
M:2/4
K:A
e2 | "A"A>Bc>A c2B>A | "D"f>ga>f "A"e2>a2 | A2>B2 "Bm"d>cB>A | "E7"c2B2 B2>e2 |
"A"A>Bc>A c2B>A | "D"f>ga>f "A"e2>d2 | c2e2 "Bm"d>Be>d | "A"c2A2 "A"A2 :|
f>g | "A"a2A2 e2A2 | "D"f>ga>f "A"e2f>g | a2A2 "Bm"f>ae>d | "E7"c2B2 B2f>g |
"A"a2A2 e2A2 | "D"f>ga>f "A"e2>d2 | c2e2 "Bm"d>Be>d | "A"c2A2 "A"A2 :|
e2 | "A"A>ec>e a>ec>e | "D"f>ga>f "A"e2>d2 | A>ec>e "Bm"f>ec>A | "E7"c2B2 B2e2 |
"A"A>ec>e a>ec>e | "D"f>g>af "A"e2>d2 | c2e2 "Bm"d>Be>d | "A"c2A2 "A"A2 :|
f>g | "A"a2c2 e2A2 | "D"f>ga>f "A"e2f>g | a2c2 "Bm"c>fe>d | "E7"c2B2 B2f>g |
"A"a2c2 e2A2 | "D"f>ga>f "A"e2>d2 | c2>e2 "Bm"d>Be>d | "A"c2A2 "A"A2f>g |
"A"a2c2 e2A2 | "D"f>ga>f "A"e2f>g | a2c2 "Bm"c>fe>d | "E7"c2B2 B2e>c |
"A"A>ec>e a>ec>e | "D"f>ga>f "A"e2>d2 | c2e2 "Bm"d>Be>d | "A"c2A2 "A"A2 |]

